X: 1
T: L\"angtan efter Sally
T: Longing for Sally
C: Bruce Sagan
N: Written when Bruce and Sally were living in different states for their jobs.
R: waltz
Z: 2021 John Chambers <jc:trillian.mit.edu>
M: 3/4
L: 1/8
K: G
D2 \
| "G"G4 B2 | "G7"d4 =f2 | "C"e2 (ed) ce | "G/B"d4 B2 \
| "Am"c2 (cB) Ac | "G"B2 (BA) GB |1 "A7"(AB) (AG) FE | "D"*D4 :|2 "Dm"(AB) (AD) =FA | "G"G4 :|
|: d2 \
| "G"g3  a g2 | "F"=f3  g f2 | "C"e2 (ed) ce | "G/B"d4 B2 \
| "Am"c2 (cB) Ac | "G"B2 (BA) GB | "A7"A2 d2 e2 | "D7"f3 e d2 |
| "G"g2 ga g2 | "F"=f2 fg f2 | "C"e2 (ed) ce | "G/B"d4 B2 \
| "Am"c2 (cB) Ac | "G"B2 (BA) GB | "Dm"(AB) (AD) =FA | "G"G4 :|
